X: 74
T: No_168_We_Have_Salt.krn
%%abc-version 2.0
%%abcx-abcm2ps-target-version 5.9.1 (29 Sep 2008)
%%abc-creator hum2abc beta
%%abcx-conversion-date 2020/08/10 18:54:57
%%gracespace 0 6 6
%%humdrum-veritas 701738430
%%humdrum-veritas-data 1366702319
%%linebreak <none>
%%barnumbers 0
L: 1/8
M: 2/4
%%staves {1 2}
V: 1 clef=bass
V: 2 clef=bass
K: Ab
[V:1] [K:clef=bass][M:2/4]A,2A,2 ||  
[V:2] [K:clef=bass][M:2/4](3!accent!G,, z G,, (3!accent!G,, z G,, ||  
[V:1] [M:3/4]A,2A,2CC | 
[V:2] [M:3/4]z6 | 
[V:1] CA,A,2A,A, | 
[V:2] z6 | 
[V:1] A,2F,2A,A, | 
[V:2] z6 | 
[V:1] C2A,2F,F, | 
[V:2] z6 | 
[V:1] E,2E,2A,A, | 
[V:2] z6 | 
[V:1] C2A,2F,F, | 
[V:2] z6 | 
[V:1] E,2C,2E,2 | 
[V:2] z6 | 
[V:1] F,2F,F, E,C, ||  
[V:2] z6 ||  
[V:1] [M:2/4]A,,2C,2 | 
[V:2] [M:2/4]z4 | 
[V:1] A,,2A,,A,, | 
[V:2] z4 | 
[V:1] A,,4 |]  
[V:2] z4 |]  


